X: 1419
T: Euabalong Ball
B: australian traditional tunes wiki
M:3/4
R: Waltz
Q: 1/4=100
K:D
V:1 
|:A2|"D"A2A2A2|A2B2A2|"A7"G2F2E2|"D"D4AA| d2A2A2|A2G2F2|"Em"E2G2B2|"D7"A4A2|!
"D"d2A2A2|A2G2F2|"Em"E2G2B2|"D7"A4FG| A2A2A2|A2B2A2|"A7"G2F2E2|"D"D:|
% abcbook-tune_id 6342d53a1f02e01c27401a85


% abcbook-boost 0
% abcbook-tablature 
% abcbook-transpose 
% abcbook-lastupdated 1665324364219
% abcbook-soundfonts 
% abcbook-repeats 1
% NFF Book 2022
% Bush Traditions recording played by Ray Mulligan

